X: 897
T: The House in the Glen
N:"Collected by F.O'Neill"
B:O'Neill's 897
Z:Transcribed by Dan G. Petersen, dangp@post6.tele.dk
M:6/8
L:1/8
K:Bm
AFA DED|AGF A2=c|BGG dGG|BAG Bcd|
AFA DED|AGF A2c|def gfe|fdB TB2A:|
Add fdd|ede fdB|Add fdd|edB T(B2A)|
Add fdd|ede efg|(f<a)f gfe|fdB TB2A:|


